_cdn/img/vt-maos-e-pes.svg

<svg width="70" height="71" viewBox="0 0 70 71" fill="none" xmlns="http://www.w3.org/2000/svg">
<path d="M40.2953 34.7174C40.4057 34.7173 40.5159 34.7075 40.6245 34.688C41.115 34.6004 41.5418 34.3269 41.8265 33.9182C41.8317 33.9109 41.8368 33.9034 41.8418 33.896L41.8638 33.9116C42.2725 34.1963 42.7677 34.3049 43.2581 34.2171C43.7738 34.1248 44.2023 33.8278 44.4746 33.4246L44.4973 33.4407C44.906 33.7255 45.4009 33.8341 45.8916 33.7462C46.3819 33.6585 46.8088 33.3851 47.0936 32.9763L47.1093 32.9534C47.5045 33.2372 48.0096 33.3674 48.5251 33.2752C49.4082 33.1173 50.0355 32.3584 50.0611 31.4952L56.8682 27.5287C56.9891 27.4583 57.077 27.3427 57.1127 27.2075C57.1483 27.0722 57.1288 26.9284 57.0584 26.8075C56.988 26.6867 56.8725 26.5988 56.7372 26.5631C56.602 26.5274 56.4581 26.547 56.3372 26.6174L49.2479 30.7483C49.1546 30.8027 49.0802 30.8845 49.0348 30.9826C48.9895 31.0807 48.9753 31.1904 48.9944 31.2968C49.073 31.7366 48.7792 32.1584 48.3394 32.2371C47.9 32.316 47.4778 32.0219 47.3991 31.5821C47.2854 30.9464 47.4261 30.3043 47.7954 29.7744C47.8726 29.6596 47.9016 29.519 47.8762 29.3829C47.8507 29.2469 47.7728 29.1264 47.6592 29.0473C47.5457 28.9681 47.4056 28.9368 47.2691 28.9601C47.1327 28.9833 47.0109 29.0593 46.9299 29.1715C46.3998 29.9327 46.1977 30.8547 46.361 31.7678C46.38 31.8726 46.3781 31.9801 46.3553 32.0841C46.3325 32.1881 46.2893 32.2865 46.2282 32.3737C46.1676 32.4612 46.0903 32.5358 46.0006 32.5932C45.911 32.6507 45.8109 32.6897 45.706 32.7082C45.4928 32.7461 45.2778 32.6991 45.1002 32.5754C45.0127 32.5148 44.9381 32.4375 44.8807 32.3478C44.8233 32.2582 44.7842 32.1581 44.7657 32.0532C44.6217 31.2479 44.7449 30.4398 45.1221 29.7164C45.1542 29.655 45.1738 29.5879 45.1799 29.5189C45.1859 29.4499 45.1784 29.3804 45.1576 29.3143C45.1368 29.2483 45.1032 29.1869 45.0587 29.1339C45.0143 29.0808 44.9598 29.037 44.8983 29.005C44.8369 28.9729 44.7698 28.9533 44.7008 28.9473C44.6319 28.9412 44.5623 28.9487 44.4963 28.9695C44.4302 28.9903 44.3689 29.0239 44.3158 29.0684C44.2627 29.1129 44.2189 29.1674 44.1869 29.2288C43.7011 30.1604 43.5421 31.2006 43.7272 32.2372L43.7275 32.2389C43.8061 32.6787 43.5123 33.1005 43.0725 33.1792C42.9677 33.1982 42.8603 33.1963 42.7563 33.1735C42.6523 33.1507 42.5539 33.1075 42.4667 33.0464C42.3792 32.9858 42.3046 32.9084 42.2472 32.8188C42.1898 32.7292 42.1507 32.629 42.1323 32.5242C41.9596 31.5589 42.0845 30.58 42.4935 29.6932C42.5232 29.6302 42.5402 29.562 42.5434 29.4924C42.5466 29.4228 42.536 29.3533 42.5122 29.2879C42.4884 29.2224 42.4518 29.1623 42.4047 29.1111C42.3575 29.0598 42.3007 29.0184 42.2374 28.9893C42.1742 28.9601 42.1058 28.9438 42.0362 28.9412C41.9666 28.9386 41.8972 28.9498 41.832 28.9742C41.7667 28.9986 41.707 29.0356 41.6561 29.0833C41.6053 29.1309 41.5644 29.1881 41.5358 29.2516C41.036 30.3352 40.8832 31.5311 41.0941 32.7099L41.0943 32.7112C41.1131 32.8158 41.1111 32.923 41.0882 33.0268C41.0654 33.1305 41.0223 33.2287 40.9613 33.3157C40.9007 33.4033 40.8233 33.4779 40.7337 33.5353C40.644 33.5927 40.5439 33.6318 40.4391 33.6502C39.9995 33.729 39.5775 33.4351 39.4988 32.9952C39.2979 31.8715 39.4231 30.7237 39.861 29.6758C39.8877 29.6119 39.9015 29.5434 39.9017 29.4741C39.902 29.4049 39.8885 29.3363 39.8622 29.2722C39.8359 29.2081 39.7973 29.1499 39.7485 29.1008C39.6996 29.0516 39.6416 29.0126 39.5777 28.9859C39.3093 28.8734 39.0001 29.0004 38.8878 29.2691C38.5269 30.1322 38.3442 31.0594 38.3509 31.9949L37.823 32.2997C37.3624 32.5656 36.8273 32.6311 36.3162 32.4844C35.8106 32.3392 35.3949 32.0046 35.1441 31.5413C34.9475 31.0923 35.091 30.5073 35.4609 30.2477L35.8856 30.0024C39.0425 28.1797 41.8036 25.6293 43.8704 22.6267C43.9476 22.5115 43.9763 22.3705 43.9502 22.2342C43.9242 22.098 43.8455 21.9775 43.7313 21.8988C43.617 21.8202 43.4764 21.7897 43.3398 21.814C43.2033 21.8383 43.0818 21.9154 43.0017 22.0286C41.0232 24.9029 38.3802 27.3443 35.3584 29.0891L34.916 29.3444C34.9056 29.3504 34.8954 29.3567 34.8854 29.3635C34.0725 29.9098 33.7673 31.0648 34.1905 31.9929C34.195 32.0025 34.1996 32.012 34.2046 32.0213C34.59 32.7473 35.2366 33.2719 36.0251 33.4982C36.8139 33.7248 37.6397 33.6235 38.3502 33.2132L38.4553 33.1525L38.4604 33.181C38.6217 34.0822 39.4097 34.7174 40.2953 34.7174ZM68.0663 31.5514C68.2062 31.5514 68.3403 31.4958 68.4392 31.3969C68.5381 31.298 68.5937 31.1639 68.5937 31.0241V29.442H69.4726C69.7638 29.442 69.9999 29.206 69.9999 28.9147C69.9999 28.6234 69.7638 28.3873 69.4726 28.3873H68.5937V26.8053C68.5937 26.514 68.3576 26.278 68.0663 26.278C67.7751 26.278 67.539 26.514 67.539 26.8053V28.3873H66.6601C66.3689 28.3873 66.1327 28.6234 66.1327 28.9147C66.1327 29.206 66.3689 29.442 66.6601 29.442H67.539V31.0241C67.539 31.1639 67.5946 31.298 67.6934 31.3969C67.7923 31.4958 67.9265 31.5514 68.0663 31.5514ZM61.5057 29.5172C62.3781 29.5172 63.0877 28.8075 63.0877 27.9352C63.0877 27.0629 62.3781 26.3531 61.5057 26.3531C60.6333 26.3531 59.9237 27.0629 59.9237 27.9352C59.9237 28.8075 60.6333 29.5172 61.5057 29.5172ZM61.5057 27.4078C61.7965 27.4078 62.033 27.6444 62.033 27.9352C62.033 28.226 61.7965 28.4625 61.5057 28.4625C61.2149 28.4625 60.9784 28.226 60.9784 27.9352C60.9784 27.6444 61.2149 27.4078 61.5057 27.4078ZM58.3219 26.5987C58.415 26.5987 58.5065 26.574 58.5869 26.5269L64.8569 22.8734C66.1666 22.1102 67.0926 20.8209 67.3973 19.336C67.702 17.851 67.3588 16.3012 66.4555 15.0839L64.1847 12.0236L69.9293 2.07372C69.9981 1.95267 70.0162 1.8093 69.9798 1.67491C69.9433 1.54052 69.8551 1.42602 69.7345 1.35639C69.6139 1.28676 69.4707 1.26766 69.336 1.30325C69.2014 1.33885 69.0863 1.42625 69.0159 1.54638L63.0981 11.7961C63.0467 11.8852 63.0225 11.9873 63.0283 12.09C63.0342 12.1927 63.07 12.2914 63.1313 12.374L65.6084 15.7123C65.9669 16.196 66.2195 16.7498 66.3497 17.3377C66.4799 17.9255 66.4848 18.5341 66.3641 19.124C66.2427 19.7137 65.9985 20.2712 65.6473 20.7602C65.2961 21.2492 64.8459 21.6587 64.3259 21.9621L58.0558 25.6156C57.9556 25.674 57.8774 25.7638 57.8333 25.8711C57.7892 25.9784 57.7818 26.0972 57.8121 26.2092C57.8424 26.3211 57.9087 26.42 58.0009 26.4904C58.0931 26.5608 58.2059 26.5989 58.3219 26.5987ZM48.4587 25.0279C48.5279 25.0279 48.5965 25.0143 48.6605 24.9878C48.7245 24.9613 48.7826 24.9224 48.8316 24.8735C48.8806 24.8245 48.9194 24.7663 48.9459 24.7024C48.9724 24.6384 48.986 24.5698 48.986 24.5005V22.9185H49.8649C50.1562 22.9185 50.3923 22.6825 50.3923 22.3912C50.3923 22.0999 50.1562 21.8638 49.8649 21.8638H48.986V20.2818C48.986 19.9905 48.75 19.7545 48.4587 19.7545C48.1674 19.7545 47.9313 19.9905 47.9313 20.2818V21.8638H47.0524C46.7611 21.8638 46.5251 22.0999 46.5251 22.3912C46.5251 22.6825 46.7611 22.9185 47.0524 22.9185H47.9313V24.5005C47.9313 24.6404 47.9869 24.7745 48.0858 24.8734C48.1847 24.9723 48.3188 25.0279 48.4587 25.0279ZM44.4565 21.2377C44.5492 21.2378 44.6402 21.2135 44.7205 21.1672C44.8007 21.1209 44.8674 21.0542 44.9137 20.974L55.8259 2.07372C55.8947 1.95267 55.9128 1.8093 55.8764 1.67491C55.8399 1.54052 55.7517 1.42602 55.6311 1.35639C55.5105 1.28676 55.3673 1.26766 55.2327 1.30325C55.098 1.33885 54.9829 1.42625 54.9125 1.54638L44.0002 20.4466C43.954 20.5268 43.9296 20.6177 43.9296 20.7102C43.9295 20.8027 43.9538 20.8937 44.0001 20.9738C44.0463 21.054 44.1128 21.1206 44.193 21.1669C44.2731 21.2132 44.364 21.2376 44.4565 21.2377ZM35.9336 20.0853C36.0028 20.0853 36.0714 20.0717 36.1354 20.0452C36.1994 20.0187 36.2575 19.9798 36.3065 19.9308C36.3555 19.8819 36.3943 19.8237 36.4208 19.7598C36.4473 19.6958 36.4609 19.6272 36.4609 19.5579V17.9759H37.3398C37.6311 17.9759 37.8672 17.7399 37.8672 17.4486C37.8672 17.1573 37.6311 16.9212 37.3398 16.9212H36.4609V15.3392C36.4609 15.0479 36.2249 14.8119 35.9336 14.8119C35.6423 14.8119 35.4062 15.0479 35.4062 15.3392V16.9212H34.5273C34.236 16.9212 34 17.1573 34 17.4486C34 17.7399 34.236 17.9759 34.5273 17.9759H35.4062V19.5579C35.4062 19.8492 35.6423 20.0853 35.9336 20.0853ZM59.694 17.156C59.7872 17.156 59.8786 17.1312 59.959 17.0842C60.3858 16.8352 60.7553 16.4992 61.0435 16.0979C61.3317 15.6966 61.5321 15.2391 61.6317 14.7552C61.7308 14.2712 61.7268 13.7717 61.6199 13.2893C61.5131 12.8069 61.3058 12.3525 61.0116 11.9556C60.9277 11.8449 60.8035 11.7717 60.666 11.7521C60.5284 11.7324 60.3887 11.7678 60.2772 11.8506C60.1656 11.9334 60.0912 12.0568 60.0701 12.1941C60.0491 12.3314 60.083 12.4715 60.1646 12.5839C60.5808 13.1449 60.7389 13.859 60.5985 14.5431C60.5289 14.8818 60.3886 15.2019 60.187 15.4827C59.9853 15.7635 59.7267 15.9987 59.4281 16.1729C59.3073 16.2433 59.2194 16.3588 59.1837 16.4941C59.148 16.6293 59.1676 16.7732 59.238 16.894C59.2844 16.9738 59.3509 17.04 59.431 17.086C59.511 17.132 59.6017 17.1561 59.694 17.156ZM46.8333 10.8561C47.7056 10.8561 48.4154 10.1464 48.4154 9.27406C48.4154 8.40176 47.7056 7.69203 46.8333 7.69203C45.961 7.69203 45.2513 8.40176 45.2513 9.27406C45.2513 10.1464 45.961 10.8561 46.8333 10.8561ZM46.8333 8.74672C47.1242 8.74672 47.3607 8.98325 47.3607 9.27406C47.3607 9.56487 47.1242 9.8014 46.8333 9.8014C46.5425 9.8014 46.306 9.56487 46.306 9.27406C46.306 8.98325 46.5425 8.74672 46.8333 8.74672Z" fill="#333333"/>
<g clip-path="url(#clip0)">
<path d="M19.9751 51.0024C20.5986 51.6354 21.3418 52.138 22.1615 52.4809C22.9811 52.8238 23.8608 53.0003 24.7493 53H24.7514C25.6398 53.0002 26.5193 52.8237 27.3388 52.4808C28.1584 52.1378 28.9015 51.6353 29.5249 51.0024C30.7933 49.7212 31.5033 47.9903 31.5 46.1874C31.4861 45.6356 31.3874 45.0892 31.2075 44.5674C31.0067 43.9673 30.7613 43.383 30.4734 42.8194C29.7366 41.3492 28.6207 39.6188 27.1568 37.6754C26.1098 36.2867 25.2696 35.3044 25.1775 35.1969L25.1761 35.1948C25.1232 35.1335 25.0578 35.0844 24.9842 35.0508C24.9107 35.0171 24.8307 34.9998 24.7498 34.9998C24.6689 34.9999 24.589 35.0174 24.5155 35.0512C24.442 35.0849 24.3767 35.1341 24.3239 35.1955L24.3218 35.1976C24.1544 35.393 22.6385 37.1691 21.1212 39.365C21.0364 39.4878 21.0039 39.6392 21.0308 39.786C21.0577 39.9328 21.1418 40.0628 21.2646 40.1476C21.3874 40.2323 21.5388 40.2648 21.6856 40.2379C21.8324 40.211 21.9624 40.1269 22.0472 40.0041C22.8487 38.844 23.658 37.7963 24.1959 37.122C24.3837 36.8858 24.5707 36.6559 24.75 36.4379C25.3575 37.1748 26.5409 38.6555 27.668 40.3177C28.4773 41.5116 29.1171 42.593 29.5706 43.5324C30.0944 44.6082 30.3806 45.5511 30.375 46.1874C30.3801 47.6943 29.7868 49.1416 28.7255 50.2114C28.2061 50.7383 27.5872 51.1567 26.9048 51.4423C26.2223 51.7279 25.4898 51.875 24.75 51.875C24.0102 51.875 23.2777 51.7279 22.5952 51.4423C21.9128 51.1567 21.2939 50.7383 20.7745 50.2114C19.7131 49.1417 19.1197 47.6944 19.125 46.1874C19.1208 45.6031 19.3627 44.7537 19.8056 43.7947C19.8676 43.6591 19.8732 43.5045 19.8212 43.3647C19.7693 43.225 19.664 43.1116 19.5286 43.0494C19.4553 43.0153 19.3753 42.9978 19.2944 42.998C19.1868 42.9981 19.0813 43.0291 18.9907 43.0873C18.9001 43.1455 18.8281 43.2285 18.7833 43.3264C18.2524 44.4915 18.0035 45.4006 18 46.1874C17.9967 47.9903 18.7067 49.7212 19.9751 51.0024Z" fill="#333333"/>
<path d="M20.0686 42.0573C20.1639 42.1145 20.2741 42.1423 20.3852 42.1369C20.4962 42.1316 20.6033 42.0935 20.6927 42.0274C20.7821 41.9613 20.8499 41.8701 20.8876 41.7655C20.9252 41.6609 20.931 41.5474 20.9042 41.4395C20.8774 41.3316 20.8192 41.234 20.7369 41.1591C20.6547 41.0843 20.5521 41.0355 20.4422 41.0189C20.3322 41.0023 20.2198 41.0187 20.1191 41.066C20.0185 41.1132 19.9341 41.1893 19.8766 41.2845C19.8766 41.2847 19.8766 41.2849 19.8764 41.285C19.8763 41.2852 19.8761 41.2852 19.8759 41.2852C19.7993 41.4132 19.7766 41.5663 19.8127 41.7111C19.8488 41.8558 19.9408 41.9803 20.0686 42.0573Z" fill="#333333"/>
<path d="M27.0005 50.031C27.117 50.0311 27.2307 49.9947 27.3256 49.9271C27.9212 49.5023 28.4066 48.9412 28.7414 48.2907C29.0761 47.6402 29.2505 46.9191 29.25 46.1875C29.25 46.0383 29.1908 45.8952 29.0853 45.7897C28.9798 45.6842 28.8367 45.625 28.6875 45.625C28.5383 45.625 28.3953 45.6842 28.2898 45.7897C28.1843 45.8952 28.125 46.0383 28.125 46.1875C28.1257 46.7395 27.9943 47.2836 27.742 47.7746C27.4897 48.2655 27.1236 48.689 26.6744 49.0098C26.577 49.0788 26.5042 49.1771 26.4664 49.2903C26.4286 49.4036 26.4278 49.5259 26.4641 49.6396C26.5004 49.7533 26.572 49.8525 26.6684 49.9229C26.7648 49.9932 26.8811 50.0311 27.0005 50.031Z" fill="#333333"/>
<path d="M24.75 50.75C25.0607 50.75 25.3125 50.4981 25.3125 50.1875C25.3125 49.8768 25.0607 49.625 24.75 49.625C24.4393 49.625 24.1875 49.8768 24.1875 50.1875C24.1875 50.4981 24.4393 50.75 24.75 50.75Z" fill="#333333"/>
<path d="M22.2407 60.9189L17.3155 62.0134C17.2434 62.0294 17.1751 62.0594 17.1146 62.1018C17.0542 62.1442 17.0026 62.1981 16.9629 62.2605C16.9233 62.3228 16.8963 62.3923 16.8835 62.4651C16.8707 62.5378 16.8723 62.6124 16.8884 62.6845C16.9044 62.7566 16.9344 62.8249 16.9768 62.8854C17.0192 62.9458 17.0731 62.9974 17.1355 63.0371C17.1978 63.0767 17.2673 63.1037 17.3401 63.1165C17.4128 63.1293 17.4874 63.1277 17.5595 63.1116L22.622 61.9866C22.7121 61.9666 22.796 61.9246 22.8661 61.8646L26.8036 58.4896C26.8145 58.4802 26.8251 58.4704 26.8353 58.4603L29.0853 56.2102C29.1375 56.158 29.1789 56.096 29.2072 56.0278C29.2355 55.9595 29.25 55.8864 29.25 55.8125C29.25 55.7386 29.2355 55.6655 29.2072 55.5972C29.1789 55.529 29.1375 55.467 29.0853 55.4147C28.5378 54.8685 27.7978 54.5589 27.0245 54.5525C26.2512 54.5461 25.5062 54.8433 24.9497 55.3803L21.154 58.0916L18.093 58.6017C17.0308 58.0531 11.4826 55.25 9 55.25C8.85082 55.25 8.70774 55.3093 8.60225 55.4147C8.49676 55.5202 8.4375 55.6633 8.4375 55.8125C8.4375 55.9617 8.49676 56.1047 8.60225 56.2102C8.70774 56.3157 8.85082 56.375 9 56.375C11.0058 56.375 15.9877 58.7646 17.7381 59.6853C17.8468 59.7425 17.9713 59.7626 18.0925 59.7423L21.4675 59.1798C21.552 59.1658 21.6322 59.1325 21.702 59.0827L25.6395 56.2702C25.6646 56.2522 25.6883 56.2321 25.7103 56.2102C25.983 55.9381 26.3349 55.7592 26.7154 55.6991C27.096 55.6389 27.4858 55.7005 27.8293 55.8752L26.0551 57.6494L22.2407 60.9189Z" fill="#333333"/>
<path d="M35.3781 63.4359C35.0005 62.6803 34.3824 62.0717 33.621 61.7058C32.8597 61.3399 31.9983 61.2374 31.1724 61.4146C31.0995 61.4294 31.0303 61.4585 30.9687 61.5002C30.9072 61.542 30.8545 61.5955 30.8138 61.6577C30.773 61.7199 30.745 61.7896 30.7314 61.8627C30.7178 61.9358 30.7188 62.0109 30.7344 62.0837C30.7499 62.1564 30.7798 62.2253 30.8222 62.2864C30.8646 62.3475 30.9187 62.3996 30.9813 62.4397C31.044 62.4798 31.114 62.507 31.1872 62.5199C31.2605 62.5327 31.3356 62.5309 31.4081 62.5145C31.8661 62.4164 32.3417 62.4397 32.7879 62.5822C33.234 62.7247 33.6351 62.9815 33.9513 63.327L25.1833 65.39C25.111 65.4065 25.0427 65.4371 24.9823 65.4802C24.9219 65.5232 24.8706 65.5778 24.8313 65.6407C24.7921 65.7037 24.7657 65.7738 24.7536 65.847C24.7416 65.9202 24.7441 65.995 24.7611 66.0672C24.7781 66.1394 24.8092 66.2075 24.8526 66.2677C24.8961 66.3278 24.951 66.3788 25.0142 66.4176C25.0774 66.4564 25.1476 66.4824 25.2209 66.4939C25.2942 66.5055 25.369 66.5025 25.4411 66.485L35.0036 64.235C35.0862 64.2156 35.1634 64.1777 35.2293 64.1241C35.2952 64.0706 35.3481 64.0029 35.3841 63.926C35.4201 63.8492 35.4382 63.7651 35.4372 63.6802C35.4361 63.5954 35.4158 63.5118 35.3778 63.4359H35.3781Z" fill="#333333"/>
<path d="M10.575 53.6462C12.2034 54.0223 13.635 54.7086 14.8317 55.6852C15.2437 56.022 15.9862 56.5894 17.1021 57.4191C17.1986 57.4917 17.3161 57.5307 17.4368 57.5302C17.5552 57.5305 17.6706 57.4934 17.7666 57.4242C17.8627 57.3551 17.9345 57.2574 17.9718 57.145C18.0091 57.0327 18.01 56.9115 17.9744 56.7986C17.9389 56.6857 17.8686 56.5869 17.7736 56.5163C17.0255 55.9601 16.0312 55.2134 15.5433 54.814C14.2123 53.7263 12.6253 52.9648 10.8281 52.55C10.7864 52.5401 10.7437 52.5352 10.7009 52.5352C10.5625 52.535 10.4289 52.5858 10.3256 52.6779C10.2223 52.77 10.1566 52.8969 10.1411 53.0344C10.1255 53.1719 10.1611 53.3103 10.2412 53.4232C10.3212 53.536 10.4401 53.6154 10.575 53.6462Z" fill="#333333"/>
<path d="M0.562504 54.6875C0.621997 54.6876 0.681116 54.6781 0.737582 54.6594L2.41946 54.1095C3.67285 53.7204 4.96522 53.4702 6.27329 53.3635C6.4221 53.3517 6.56011 53.2812 6.65696 53.1676C6.75381 53.054 6.80157 52.9066 6.78973 52.7578C6.77789 52.609 6.70742 52.471 6.59382 52.3741C6.48022 52.2773 6.3328 52.2295 6.18399 52.2413C4.79274 52.3558 3.41818 52.622 2.08477 53.0352L0.387426 53.5906C0.260392 53.6324 0.152387 53.718 0.082781 53.8322C0.0131748 53.9464 -0.0134798 54.0816 0.00759718 54.2137C0.0286742 54.3457 0.0961041 54.4659 0.197795 54.5528C0.299485 54.6396 0.428784 54.6874 0.562504 54.6875Z" fill="#333333"/>
<path d="M8.44173 53.341C8.45298 53.3417 8.46494 53.3424 8.47759 53.3424C8.62658 53.3435 8.77004 53.286 8.87701 53.1823C8.98398 53.0786 9.04589 52.937 9.04938 52.7881C9.05286 52.6391 8.99764 52.4948 8.89564 52.3862C8.79363 52.2776 8.65302 52.2134 8.50414 52.2076C8.35526 52.2018 8.21006 52.2547 8.09986 52.355C7.98966 52.4552 7.92331 52.5948 7.91512 52.7436C7.90693 52.8923 7.95756 53.0384 8.05608 53.1501C8.1546 53.2619 8.29312 53.3305 8.44173 53.341Z" fill="#333333"/>
<path d="M30.4164 66.8586L28.8654 66.3416C28.7239 66.2944 28.5694 66.3054 28.4359 66.3721C28.3025 66.4388 28.201 66.5558 28.1539 66.6973C28.1067 66.8389 28.1177 66.9933 28.1844 67.1268C28.2511 67.2602 28.3681 67.3617 28.5096 67.4089L30.0606 67.9259C30.4274 68.0481 30.7383 68.2976 30.9372 68.6291C31.1361 68.9607 31.2098 69.3524 31.145 69.7335L19.9881 66.1631L25.5453 63.6371C25.5561 63.6322 25.5668 63.6269 25.5772 63.6213L34.0147 59.1213C34.0863 59.0831 34.1488 59.0299 34.1979 58.9653C34.247 58.9007 34.2815 58.8262 34.2991 58.747C34.3167 58.6678 34.317 58.5857 34.2999 58.5064C34.2828 58.4271 34.2487 58.3524 34.2 58.2875C33.6477 57.5504 32.8541 57.0307 31.9577 56.8191C31.0613 56.6075 30.119 56.7174 29.2954 57.1297C29.1623 57.1966 29.0612 57.3135 29.0143 57.4549C28.9673 57.5963 28.9783 57.7505 29.045 57.8838C29.1116 58.017 29.2283 58.1184 29.3696 58.1657C29.5109 58.2129 29.6651 58.2022 29.7985 58.1359C30.2833 57.8933 30.828 57.7962 31.3668 57.8565C31.9056 57.9169 32.4154 58.1319 32.8345 58.4757L25.0636 62.6202L19.0031 65.375H15.8771L4.1793 59.8046C4.10376 59.7687 4.02116 59.75 3.9375 59.75H0.5625C0.413316 59.75 0.270242 59.8093 0.164752 59.9147C0.0592632 60.0202 0 60.1633 0 60.3125C0 60.4617 0.0592632 60.6048 0.164752 60.7102C0.270242 60.8157 0.413316 60.875 0.5625 60.875H3.81038L15.5082 66.4454C15.5837 66.4813 15.6663 66.5 15.75 66.5H17.3497L31.3286 70.9733C31.4564 71.0142 31.5947 71.008 31.7184 70.9559C31.8421 70.9038 31.9431 70.8091 32.0031 70.6891C32.1789 70.3374 32.2771 69.9521 32.291 69.5592C32.3049 69.1663 32.2343 68.775 32.0838 68.4118C31.9334 68.0486 31.7066 67.7219 31.419 67.4539C31.1313 67.186 30.7894 66.9829 30.4164 66.8586Z" fill="#333333"/>
</g>
<defs>
<clipPath id="clip0">
<rect width="36" height="36" fill="white" transform="translate(0 35)"/>
</clipPath>
</defs>
</svg>

<svg width="70" height="71" fill="none" xmlns="http://www.w3.org/2000/svg"><path d="M40.295 34.717a1.873 1.873 0 001.547-.821l.022.016c.409.284.904.393 1.394.305a1.86 1.86 0 001.217-.792l.022.016c.409.284.904.393 1.395.305.49-.088.917-.36 1.202-.77l.015-.023c.395.284.9.414 1.416.322a1.868 1.868 0 001.536-1.78l6.807-3.966a.528.528 0 10-.53-.912l-7.09 4.131a.528.528 0 00-.254.549.811.811 0 01-1.595.285 2.402 2.402 0 01.396-1.808.528.528 0 00-.865-.602 3.45 3.45 0 00-.569 2.596.806.806 0 01-.36.825.806.806 0 01-1.12-.245.805.805 0 01-.115-.295 3.63 3.63 0 01.356-2.337.526.526 0 10-.935-.487 4.674 4.674 0 00-.46 3.008v.002a.811.811 0 01-1.595.285 4.736 4.736 0 01.361-2.83.528.528 0 10-.957-.442 5.785 5.785 0 00-.442 3.458v.001a.804.804 0 01-.36.824.811.811 0 01-1.235-.54 5.898 5.898 0 01.362-3.32.527.527 0 00-.973-.406 6.937 6.937 0 00-.537 2.726l-.528.305c-.46.266-.996.331-1.507.184a1.927 1.927 0 01-1.172-.943c-.197-.449-.053-1.034.317-1.293l.425-.246a24.82 24.82 0 007.984-7.375.527.527 0 00-.868-.598 23.76 23.76 0 01-7.644 7.06l-.442.255a.487.487 0 00-.03.02c-.814.546-1.119 1.7-.696 2.629l.015.028a2.974 2.974 0 001.82 1.477 2.97 2.97 0 002.325-.285l.105-.06.005.028a1.87 1.87 0 001.835 1.536zm27.771-3.166a.527.527 0 00.528-.527v-1.582h.879a.527.527 0 100-1.055h-.88v-1.582a.527.527 0 10-1.054 0v1.582h-.879a.527.527 0 000 1.055h.879v1.582a.528.528 0 00.527.527zm-6.56-2.034c.872 0 1.582-.71 1.582-1.582 0-.872-.71-1.582-1.582-1.582-.873 0-1.582.71-1.582 1.582 0 .873.71 1.582 1.582 1.582zm0-2.11a.528.528 0 11-.002 1.057.528.528 0 01.002-1.056zm-3.184-.808a.524.524 0 00.265-.072l6.27-3.654a5.342 5.342 0 002.54-3.537 5.342 5.342 0 00-.942-4.252l-2.27-3.06 5.744-9.95a.528.528 0 00-.913-.528l-5.918 10.25a.528.528 0 00.033.578l2.477 3.338a4.286 4.286 0 01.04 5.048 4.286 4.286 0 01-1.322 1.202l-6.27 3.654a.528.528 0 00.266.983zm-9.863-1.571a.528.528 0 00.527-.527v-1.582h.879a.527.527 0 100-1.055h-.879v-1.582a.527.527 0 10-1.055 0v1.582h-.879a.527.527 0 100 1.055h.88V24.5a.527.527 0 00.527.528zm-4.003-3.79a.527.527 0 00.458-.264l10.912-18.9a.528.528 0 00-.913-.528L44 20.446a.528.528 0 00.456.792zm-8.522-1.153a.528.528 0 00.527-.527v-1.582h.879a.527.527 0 100-1.055h-.88V15.34a.527.527 0 10-1.054 0v1.582h-.879a.527.527 0 100 1.055h.88v1.582c0 .291.235.527.527.527zm23.76-2.929a.525.525 0 00.265-.072 3.517 3.517 0 001.66-3.795 3.516 3.516 0 00-.607-1.333.527.527 0 00-.847.628 2.461 2.461 0 01-.737 3.589.527.527 0 00.266.983zm-12.86-6.3c.872 0 1.581-.71 1.581-1.582 0-.872-.71-1.582-1.582-1.582-.872 0-1.582.71-1.582 1.582 0 .872.71 1.582 1.582 1.582zm0-2.11a.528.528 0 11-.002 1.056.528.528 0 01.001-1.055z" fill="#333"/><g clip-path="url(#clip0)" fill="#333"><path d="M19.975 51.002A6.696 6.696 0 0024.75 53h.002a6.7 6.7 0 004.774-1.998 6.826 6.826 0 001.975-4.815 5.387 5.387 0 00-.293-1.62c-.2-.6-.446-1.184-.734-1.748-.736-1.47-1.852-3.2-3.316-5.144a53.927 53.927 0 00-1.98-2.478v-.002a.561.561 0 00-.853 0l-.002.003a54.904 54.904 0 00-3.2 4.167.562.562 0 10.925.64 53.812 53.812 0 012.703-3.567c.608.737 1.79 2.218 2.918 3.88.81 1.194 1.45 2.275 1.903 3.214.523 1.076.81 2.02.804 2.655a5.686 5.686 0 01-3.47 5.255 5.582 5.582 0 01-6.13-1.23 5.685 5.685 0 01-1.65-4.025c-.004-.584.238-1.433.68-2.392a.562.562 0 00-1.022-.469c-.53 1.166-.78 2.075-.783 2.861a6.826 6.826 0 001.975 4.815z"/><path d="M20.069 42.057a.562.562 0 10-.192-.773v.001h-.001a.564.564 0 00.193.772zM27 50.031a.56.56 0 00.326-.104 4.59 4.59 0 001.924-3.74.563.563 0 10-1.125 0 3.463 3.463 0 01-1.45 2.823.562.562 0 00.325 1.02zm-2.25.719a.563.563 0 100-1.125.563.563 0 000 1.125zm-2.51 10.169l-4.924 1.094a.562.562 0 10.244 1.099l5.062-1.125a.563.563 0 00.244-.122l3.938-3.375.031-.03 2.25-2.25a.563.563 0 000-.795 2.953 2.953 0 00-4.135-.035l-3.796 2.712-3.061.51c-1.062-.549-6.61-3.352-9.093-3.352a.563.563 0 000 1.125c2.006 0 6.988 2.39 8.738 3.31a.562.562 0 00.355.057l3.375-.562a.562.562 0 00.234-.097l3.938-2.813a.577.577 0 00.07-.06 1.827 1.827 0 012.12-.335l-1.775 1.774-3.814 3.27zm13.138 2.517a3.808 3.808 0 00-4.206-2.021.563.563 0 10.236 1.1 2.686 2.686 0 012.543.812l-8.768 2.063a.56.56 0 00-.33.878.564.564 0 00.588.217l9.563-2.25a.561.561 0 00.374-.8z"/><path d="M10.575 53.646c1.628.376 3.06 1.063 4.257 2.04.412.336 1.154.903 2.27 1.733a.562.562 0 10.671-.903c-.747-.556-1.742-1.303-2.23-1.702-1.33-1.088-2.918-1.85-4.715-2.264a.563.563 0 10-.253 1.096zM.563 54.688c.059 0 .118-.01.175-.029l1.681-.55a17.91 17.91 0 013.854-.745.563.563 0 10-.089-1.123 19.218 19.218 0 00-4.1.794l-1.697.556a.563.563 0 00.176 1.096zm7.879-1.347a.569.569 0 00.454-.955.568.568 0 10-.454.955zm21.974 13.518l-1.55-.517a.563.563 0 00-.356 1.067l1.55.517a1.62 1.62 0 011.085 1.808l-11.157-3.57 5.557-2.527a.525.525 0 00.032-.016l8.438-4.5a.563.563 0 00.185-.834 3.93 3.93 0 00-4.905-1.157.562.562 0 00.503 1.006 2.807 2.807 0 013.037.34l-7.771 4.144-6.06 2.755h-3.127L4.18 59.805a.563.563 0 00-.242-.055H.563a.563.563 0 000 1.125H3.81l11.698 5.57a.563.563 0 00.242.055h1.6l13.979 4.473a.563.563 0 00.674-.284 2.744 2.744 0 00-1.587-3.83z"/></g><defs><clipPath id="clip0"><path fill="#fff" transform="translate(0 35)" d="M0 0h36v36H0z"/></clipPath></defs></svg>
